icons/plexis/48/drracket.svg

<svg viewBox="0 0 48 48" xmlns="http://www.w3.org/2000/svg" xmlns:xlink="http://www.w3.org/1999/xlink">
  <linearGradient id="a" gradientTransform="matrix(0 -1 1 0 -.0000015 47.999998)" gradientUnits="userSpaceOnUse" x1="1" x2="47">
    <stop offset="0" stop-color="#5b8fb3"/>
    <stop offset="1" stop-color="#6998b9"/>
  </linearGradient>
  <linearGradient id="b" gradientUnits="userSpaceOnUse" x2="0" y1="47" y2="1">
    <stop offset="0" stop-color="#d74b4b"/>
    <stop offset="1" stop-color="#e74f4f"/>
  </linearGradient>
  <path d="m24 1c22.703 0 23 .297 23 23 0 22.703-.297 23-23 23-6-4-6-43 0-46z" fill="url(#a)"/>
  <path d="m24 1c-22.703 0-23 .297-23 23 0 22.703.297 23 23 23z" fill="url(#b)"/>
  <g transform="scale(3.543307)">
    <path d="m4.354 10.537l2.041-4.829-.206-.745c-.088-.251-.169-.427-.243-.53-.074-.103-.161-.181-.261-.234-.097-.053-.218-.08-.363-.08-.171 0-.34.019-.508.057v-.588c.2-.05.393-.075.579-.075.268 0 .491.044.668.133.18.088.335.228.464.42.13.192.274.511.433.959l1.605 4.474c.056.144.115.255.177.332.062.074.144.111.248.111.08 0 .168-.015.265-.044v.535c-.141.071-.302.106-.482.106-.218 0-.389-.056-.513-.168-.121-.112-.224-.29-.309-.535l-1.145-3.395-1.689 4.098" opacity=".1" transform="matrix(1.0371049 0 0 .96422259 .28225376 0)"/>
    <path d="m4.354 10.537l2.041-4.829-.206-.745c-.088-.251-.169-.427-.243-.53-.074-.103-.161-.181-.261-.234-.097-.053-.218-.08-.363-.08-.171 0-.34.019-.508.057v-.588c.2-.05.393-.075.579-.075.268 0 .491.044.668.133.18.088.335.228.464.42.13.192.274.511.433.959l1.605 4.474c.056.144.115.255.177.332.062.074.144.111.248.111.08 0 .168-.015.265-.044v.535c-.141.071-.302.106-.482.106-.218 0-.389-.056-.513-.168-.121-.112-.224-.29-.309-.535l-1.145-3.395-1.689 4.098" fill="#f9f9f9" transform="matrix(1.0371049 0 0 .96422259 0 -.28222191)"/>
  </g>
</svg>

<svg xmlns="http://www.w3.org/2000/svg" viewBox="0 0 48 48">
 <defs>
  <linearGradient id="linearGradient3764" x1="1" x2="47" gradientUnits="userSpaceOnUse" gradientTransform="matrix(0,-1,1,0,-1.5e-6,47.999998)">
   <stop style="stop-color:#5b8fb3;stop-opacity:1"/>
   <stop offset="1" style="stop-color:#6998b9;stop-opacity:1"/>
  </linearGradient>
  <linearGradient id="linearGradient4077" y1="47" x2="0" y2="1" gradientUnits="userSpaceOnUse">
   <stop style="stop-color:#d74b4b;stop-opacity:1"/>
   <stop offset="1" style="stop-color:#e74f4f;stop-opacity:1"/>
  </linearGradient>
 </defs>
 <g>
  
  
  
 </g>
 <g>
  <path d="M 24,1 C 46.703,1 47,1.297 47,24 47,46.703 46.703,47 24,47 18,43 18,4 24,1 Z" style="fill:url(#linearGradient3764);fill-opacity:1"/>
 </g>
 <path d="m 24 1 c -22.703 0 -23 0.297 -23 23 0 22.703 0.297 23 23 23 l 0 -46" style="fill:url(#linearGradient4077);fill-opacity:1;stroke:none"/>
 <g>
  
 </g>
 <g transform="scale(3.543307,3.543307)">
  <g transform="matrix(1.0371049,0,0,0.96422259,0.28225376,0)" style="fill:#000;opacity:0.1;fill-opacity:1;stroke:none">
   <path d="M 4.354,10.537 6.395,5.708 6.189,4.963 C 6.101,4.712 6.02,4.536 5.946,4.433 5.872,4.33 5.785,4.252 5.685,4.199 5.588,4.146 5.467,4.119 5.322,4.119 c -0.171,0 -0.34,0.019 -0.508,0.057 l 0,-0.588 c 0.2,-0.05 0.393,-0.075 0.579,-0.075 0.268,0 0.491,0.044 0.668,0.133 0.18,0.088 0.335,0.228 0.464,0.42 0.13,0.192 0.274,0.511 0.433,0.959 l 1.605,4.474 c 0.056,0.144 0.115,0.255 0.177,0.332 0.062,0.074 0.144,0.111 0.248,0.111 0.08,0 0.168,-0.015 0.265,-0.044 l 0,0.535 C 9.112,10.504 8.951,10.539 8.771,10.539 8.553,10.539 8.382,10.483 8.258,10.371 8.137,10.259 8.034,10.081 7.949,9.836 L 6.804,6.441 5.115,10.539"/>
  </g>
  <g transform="matrix(1.0371049,0,0,0.96422259,0,-0.28222191)" style="fill:#f9f9f9;fill-opacity:1;stroke:none">
   <path d="M 4.354,10.537 6.395,5.708 6.189,4.963 C 6.101,4.712 6.02,4.536 5.946,4.433 5.872,4.33 5.785,4.252 5.685,4.199 5.588,4.146 5.467,4.119 5.322,4.119 c -0.171,0 -0.34,0.019 -0.508,0.057 l 0,-0.588 c 0.2,-0.05 0.393,-0.075 0.579,-0.075 0.268,0 0.491,0.044 0.668,0.133 0.18,0.088 0.335,0.228 0.464,0.42 0.13,0.192 0.274,0.511 0.433,0.959 l 1.605,4.474 c 0.056,0.144 0.115,0.255 0.177,0.332 0.062,0.074 0.144,0.111 0.248,0.111 0.08,0 0.168,-0.015 0.265,-0.044 l 0,0.535 C 9.112,10.504 8.951,10.539 8.771,10.539 8.553,10.539 8.382,10.483 8.258,10.371 8.137,10.259 8.034,10.081 7.949,9.836 L 6.804,6.441 5.115,10.539"/>
  </g>
 </g>
</svg>
